X:475
T:Polska efter Pusten
T:"Mellan Pusten"
R:Polska
N:Gammalpolska Rogsta
Z:Håkan Lidén, 2008-09-26
O:Hälsingland, Rogsta
S:efter Pusten, Jonas Persson Wiik
M:3/4
L:1/8
K:Dm
E | F>G A2 G2 | FA d2 A2 | (3:2:3^c2 e2 g2 fg/f/ | ef d=c A/B/A/G/ | F>G A2 G2 | 
FA d2 A2 | (3:2:3^c2 e2 g2 fg/f/ | e^c d3 ::[D] e | f>g fe/f/ de/f/ | g>a gf/g/ e2 |
f>g fe/f/ de/f/ | g>a gf/g/ e2 | a>^g ab af | d>e fa g/f/e/d/ | c/d/e/c/ d3 :|]
(:musicend:)

(:music:)
